actions/48/document-new.svg

<?xml version="1.0" encoding="UTF-8" standalone="no"?>
<!-- Created with Inkscape (http://www.inkscape.org/) -->

<svg
   xmlns:svg="http://www.w3.org/2000/svg"
   xmlns="http://www.w3.org/2000/svg"
   xmlns:xlink="http://www.w3.org/1999/xlink"
   version="1.1"
   width="48"
   height="48"
   id="svg3123">
  <defs
     id="defs3125">
    <radialGradient
       cx="605.71429"
       cy="486.64789"
       r="117.14286"
       fx="605.71429"
       fy="486.64789"
       id="radialGradient4004"
       xlink:href="#linearGradient5060"
       gradientUnits="userSpaceOnUse"
       gradientTransform="matrix(0.02409717,0,0,0.01537476,26.477584,38.629039)" />
    <linearGradient
       id="linearGradient5060">
      <stop
         id="stop5062"
         style="stop-color:black;stop-opacity:1"
         offset="0" />
      <stop
         id="stop5064"
         style="stop-color:black;stop-opacity:0"
         offset="1" />
    </linearGradient>
    <radialGradient
       cx="605.71429"
       cy="486.64789"
       r="117.14286"
       fx="605.71429"
       fy="486.64789"
       id="radialGradient4002"
       xlink:href="#linearGradient5060"
       gradientUnits="userSpaceOnUse"
       gradientTransform="matrix(-0.02409717,0,0,0.01537476,21.522412,38.629039)" />
    <linearGradient
       id="linearGradient5048">
      <stop
         id="stop5050"
         style="stop-color:black;stop-opacity:0"
         offset="0" />
      <stop
         id="stop5056"
         style="stop-color:black;stop-opacity:1"
         offset="0.5" />
      <stop
         id="stop5052"
         style="stop-color:black;stop-opacity:0"
         offset="1" />
    </linearGradient>
    <linearGradient
       x1="302.85715"
       y1="366.64789"
       x2="302.85715"
       y2="609.50507"
       id="linearGradient4000"
       xlink:href="#linearGradient5048"
       gradientUnits="userSpaceOnUse"
       gradientTransform="matrix(0.0704142,0,0,0.01537476,-1.4497047,38.629007)" />
    <linearGradient
       id="linearGradient8589">
      <stop
         id="stop8591"
         style="stop-color:#fefefe;stop-opacity:1"
         offset="0" />
      <stop
         id="stop8593"
         style="stop-color:#cbcbcb;stop-opacity:1"
         offset="1" />
    </linearGradient>
    <linearGradient
       x1="32.892288"
       y1="8.0590115"
       x2="36.358372"
       y2="5.4565363"
       id="linearGradient2814"
       xlink:href="#linearGradient8589"
       gradientUnits="userSpaceOnUse"
       gradientTransform="matrix(0.9976985,0,0,1.0642049,-2.8361991,-0.1392616)" />
    <linearGradient
       id="linearGradient3931">
      <stop
         id="stop3933"
         style="stop-color:#8d8f8a;stop-opacity:1"
         offset="0" />
      <stop
         id="stop3935"
         style="stop-color:#cbcbcb;stop-opacity:1"
         offset="1" />
    </linearGradient>
    <linearGradient
       x1="-51.786404"
       y1="50.786446"
       x2="-51.786404"
       y2="2.9062471"
       id="linearGradient2812"
       xlink:href="#linearGradient3931"
       gradientUnits="userSpaceOnUse"
       gradientTransform="matrix(0.8074968,0,0,0.9358511,56.410231,-1.1144816)" />
    <linearGradient
       id="linearGradient3600">
      <stop
         id="stop3602"
         style="stop-color:#f4f4f4;stop-opacity:1"
         offset="0" />
      <stop
         id="stop3604"
         style="stop-color:#dbdbdb;stop-opacity:1"
         offset="1" />
    </linearGradient>
    <linearGradient
       x1="25.132275"
       y1="6.7287393"
       x2="25.132275"
       y2="47.013336"
       id="linearGradient2810"
       xlink:href="#linearGradient3600"
       gradientUnits="userSpaceOnUse"
       gradientTransform="translate(-2.9999991,-1.6e-6)" />
    <linearGradient
       id="linearGradient4222">
      <stop
         id="stop4224"
         style="stop-color:white;stop-opacity:1"
         offset="0" />
      <stop
         id="stop4226"
         style="stop-color:white;stop-opacity:0"
         offset="1" />
    </linearGradient>
    <linearGradient
       x1="24.138529"
       y1="-9.8008652"
       x2="24.138529"
       y2="47.272728"
       id="linearGradient5284"
       xlink:href="#linearGradient4222"
       gradientUnits="userSpaceOnUse"
       gradientTransform="matrix(0.5364316,0,0,0.5331957,-15.687737,50.16873)" />
    <linearGradient
       id="linearGradient2264">
      <stop
         id="stop2266"
         style="stop-color:#d7e866;stop-opacity:1"
         offset="0" />
      <stop
         id="stop2268"
         style="stop-color:#8cab2a;stop-opacity:1"
         offset="1" />
    </linearGradient>
    <linearGradient
       x1="24.103895"
       y1="15.168831"
       x2="24.103895"
       y2="32.485161"
       id="linearGradient5282"
       xlink:href="#linearGradient2264"
       gradientUnits="userSpaceOnUse"
       gradientTransform="matrix(0.8930497,0,0,0.8876627,-24.246571,42.1613)" />
  </defs>
  <g
     id="layer1">
    <g
       transform="matrix(0.9561265,0,0,0.9561265,1.052964,2.1059284)"
       id="g2877"
       style="display:inline">
      <rect
         width="34"
         height="3.7338707"
         x="7"
         y="44.266129"
         id="rect2879"
         style="opacity:0.40206185;fill:url(#linearGradient4000);fill-opacity:1;fill-rule:nonzero;stroke:none;stroke-width:1;marker:none;visibility:visible;display:inline;overflow:visible" />
      <path
         d="m 7,44.266291 c 0,0 0,3.733665 0,3.733665 -1.2409448,0.007 -3,-0.836525 -3,-1.867073 0,-1.030547 1.3848007,-1.866591 3,-1.866592 z"
         id="path2881"
         style="opacity:0.40206185;fill:url(#radialGradient4002);fill-opacity:1;fill-rule:nonzero;stroke:none;stroke-width:1;marker:none;visibility:visible;display:inline;overflow:visible" />
      <path
         d="m 41,44.266291 c 0,0 0,3.733665 0,3.733665 1.240944,0.007 3,-0.836525 3,-1.867073 0,-1.030547 -1.384801,-1.866591 -3,-1.866592 z"
         id="path2883"
         style="opacity:0.40206185;fill:url(#radialGradient4004);fill-opacity:1;fill-rule:nonzero;stroke:none;stroke-width:1;marker:none;visibility:visible;display:inline;overflow:visible" />
    </g>
    <g
       transform="translate(2.999999,0)"
       id="g2805"
       style="display:inline">
      <path
         d="m 3.4999609,1.4999584 c 8.0202901,0 16.0405901,0 24.0608801,0 1.40694,0.48538 8.96546,6.01514 10.9392,9.8439596 0,11.7187 0,23.43741 0,35.15612 -11.66669,0 -23.33339,0 -35.0000801,0 0,-15.00003 0,-30.00005 0,-45.0000796 z"
         id="rect2594"
         style="fill:url(#linearGradient2810);fill-opacity:1;stroke:url(#linearGradient2812);stroke-width:0.9999218;stroke-linecap:butt;stroke-linejoin:round;stroke-miterlimit:4;stroke-opacity:1;stroke-dasharray:none;stroke-dashoffset:0" />
      <path
         d="m 26.767541,1.8146184 c 0.6375,4.12506 0.60946,9.0344696 0.60946,9.0344696 0,0 4.86973,-0.1115 10.88525,0.59393 -4.89688,-4.7877996 -8.32845,-6.7841796 -11.49471,-9.6283996 z"
         id="path8596"
         style="fill:black;fill-opacity:0.32663317;fill-rule:evenodd;stroke:black;stroke-width:0.5;stroke-linecap:butt;stroke-linejoin:round;stroke-miterlimit:4;stroke-opacity:0.16582917;stroke-dasharray:none;display:inline" />
      <path
         d="m 26.657921,1.5079284 c 1.41222,4.1225 1.29509,8.2607 1.29509,8.2607 0,0 7.833,0.5473096 10.17514,1.5939296 0,-1.7111396 -9.2975,-9.8254196 -11.47023,-9.8546296 z"
         id="path12038"
         style="fill:url(#linearGradient2814);fill-opacity:1;fill-rule:evenodd;stroke:none;display:inline" />
    </g>
    <g
       transform="translate(40.86706,-25.532011)"
       id="g5278"
       style="display:inline">
      <path
         d="m -6.3335818,60.032011 0,-5.001447 6.96652204,0 0,5.001447 5.00144796,0 0,7 -5.00144796,0 0,5 -6.97259004,0 -0.027688,-5 -4.9997222,0 0,-7 5.0334782,0 z"
         id="path2262"
         style="fill:url(#linearGradient5282);fill-opacity:1;fill-rule:evenodd;stroke:#42770c;stroke-width:1;stroke-linecap:butt;stroke-linejoin:round;stroke-miterlimit:4;stroke-opacity:1;stroke-dasharray:none" />
      <path
         d="m -5.3670598,61.032011 0,-5 5.00144004,0 0,5 4.99855996,0 0,4.925922 -4.99855996,-0.01562 0,5.089698 -5.00144004,0 0,-5.000007 -5.0000002,0 0,-4.999993 5.0000002,0 z"
         id="path2272"
         style="fill:none;stroke:url(#linearGradient5284);stroke-width:1;stroke-linecap:butt;stroke-linejoin:miter;stroke-miterlimit:4;stroke-opacity:1;stroke-dasharray:none" />
    </g>
  </g>
</svg>

<?xml version="1.0" encoding="UTF-8" standalone="no"?>
<!-- Created with Inkscape (http://www.inkscape.org/) -->
<svg
   xmlns:dc="http://purl.org/dc/elements/1.1/"
   xmlns:cc="http://creativecommons.org/ns#"
   xmlns:rdf="http://www.w3.org/1999/02/22-rdf-syntax-ns#"
   xmlns:svg="http://www.w3.org/2000/svg"
   xmlns="http://www.w3.org/2000/svg"
   xmlns:xlink="http://www.w3.org/1999/xlink"
   xmlns:sodipodi="http://sodipodi.sourceforge.net/DTD/sodipodi-0.dtd"
   xmlns:inkscape="http://www.inkscape.org/namespaces/inkscape"
   width="48px"
   height="48px"
   id="svg3123"
   sodipodi:version="0.32"
   inkscape:version="0.46"
   sodipodi:docname="document-new.svg"
   inkscape:output_extension="org.inkscape.output.svg.inkscape">
  <defs
     id="defs3125">
    <radialGradient
       inkscape:collect="always"
       xlink:href="#linearGradient5060"
       id="radialGradient4004"
       gradientUnits="userSpaceOnUse"
       gradientTransform="matrix(2.4097175e-2,0,0,1.5374761e-2,26.477584,38.629039)"
       cx="605.71429"
       cy="486.64789"
       fx="605.71429"
       fy="486.64789"
       r="117.14286" />
    <linearGradient
       inkscape:collect="always"
       id="linearGradient5060">
      <stop
         style="stop-color:black;stop-opacity:1;"
         offset="0"
         id="stop5062" />
      <stop
         style="stop-color:black;stop-opacity:0;"
         offset="1"
         id="stop5064" />
    </linearGradient>
    <radialGradient
       inkscape:collect="always"
       xlink:href="#linearGradient5060"
       id="radialGradient4002"
       gradientUnits="userSpaceOnUse"
       gradientTransform="matrix(-2.409717e-2,0,0,1.5374761e-2,21.522412,38.629039)"
       cx="605.71429"
       cy="486.64789"
       fx="605.71429"
       fy="486.64789"
       r="117.14286" />
    <linearGradient
       id="linearGradient5048">
      <stop
         style="stop-color:black;stop-opacity:0;"
         offset="0"
         id="stop5050" />
      <stop
         id="stop5056"
         offset="0.5"
         style="stop-color:black;stop-opacity:1;" />
      <stop
         style="stop-color:black;stop-opacity:0;"
         offset="1"
         id="stop5052" />
    </linearGradient>
    <linearGradient
       inkscape:collect="always"
       xlink:href="#linearGradient5048"
       id="linearGradient4000"
       gradientUnits="userSpaceOnUse"
       gradientTransform="matrix(7.0414201e-2,0,0,1.5374761e-2,-1.4497047,38.629007)"
       x1="302.85715"
       y1="366.64789"
       x2="302.85715"
       y2="609.50507" />
    <linearGradient
       id="linearGradient8589">
      <stop
         style="stop-color:#fefefe;stop-opacity:1"
         offset="0"
         id="stop8591" />
      <stop
         style="stop-color:#cbcbcb;stop-opacity:1;"
         offset="1"
         id="stop8593" />
    </linearGradient>
    <linearGradient
       inkscape:collect="always"
       xlink:href="#linearGradient8589"
       id="linearGradient2814"
       gradientUnits="userSpaceOnUse"
       gradientTransform="matrix(0.9976985,0,0,1.0642049,-2.8361991,-0.1392616)"
       x1="32.892288"
       y1="8.0590115"
       x2="36.358372"
       y2="5.4565363" />
    <linearGradient
       id="linearGradient3931">
      <stop
         id="stop3933"
         offset="0"
         style="stop-color:#8d8f8a;stop-opacity:1" />
      <stop
         id="stop3935"
         offset="1"
         style="stop-color:#cbcbcb;stop-opacity:1;" />
    </linearGradient>
    <linearGradient
       inkscape:collect="always"
       xlink:href="#linearGradient3931"
       id="linearGradient2812"
       gradientUnits="userSpaceOnUse"
       gradientTransform="matrix(0.8074968,0,0,0.9358511,56.410231,-1.1144816)"
       x1="-51.786404"
       y1="50.786446"
       x2="-51.786404"
       y2="2.9062471" />
    <linearGradient
       id="linearGradient3600"
       inkscape:collect="always">
      <stop
         id="stop3602"
         offset="0"
         style="stop-color:#f4f4f4;stop-opacity:1" />
      <stop
         id="stop3604"
         offset="1"
         style="stop-color:#dbdbdb;stop-opacity:1" />
    </linearGradient>
    <linearGradient
       inkscape:collect="always"
       xlink:href="#linearGradient3600"
       id="linearGradient2810"
       gradientUnits="userSpaceOnUse"
       gradientTransform="translate(-2.9999991,-1.6e-6)"
       x1="25.132275"
       y1="6.7287393"
       x2="25.132275"
       y2="47.013336" />
    <linearGradient
       inkscape:collect="always"
       id="linearGradient4222">
      <stop
         style="stop-color:#ffffff;stop-opacity:1;"
         offset="0"
         id="stop4224" />
      <stop
         style="stop-color:#ffffff;stop-opacity:0;"
         offset="1"
         id="stop4226" />
    </linearGradient>
    <linearGradient
       inkscape:collect="always"
       xlink:href="#linearGradient4222"
       id="linearGradient5284"
       gradientUnits="userSpaceOnUse"
       gradientTransform="matrix(0.5364316,0,0,0.5331957,-15.687737,50.16873)"
       x1="24.138529"
       y1="-9.8008652"
       x2="24.138529"
       y2="47.272728" />
    <linearGradient
       id="linearGradient2264">
      <stop
         style="stop-color:#d7e866;stop-opacity:1;"
         offset="0"
         id="stop2266" />
      <stop
         style="stop-color:#8cab2a;stop-opacity:1;"
         offset="1"
         id="stop2268" />
    </linearGradient>
    <linearGradient
       inkscape:collect="always"
       xlink:href="#linearGradient2264"
       id="linearGradient5282"
       gradientUnits="userSpaceOnUse"
       gradientTransform="matrix(0.8930497,0,0,0.8876627,-24.246571,42.1613)"
       x1="24.103895"
       y1="15.168831"
       x2="24.103895"
       y2="32.485161" />
  </defs>
  <sodipodi:namedview
     id="base"
     pagecolor="#ffffff"
     bordercolor="#666666"
     borderopacity="1.0"
     inkscape:pageopacity="0.0"
     inkscape:pageshadow="2"
     inkscape:zoom="7"
     inkscape:cx="24"
     inkscape:cy="24"
     inkscape:current-layer="layer1"
     showgrid="true"
     inkscape:grid-bbox="true"
     inkscape:document-units="px"
     inkscape:window-width="640"
     inkscape:window-height="720"
     inkscape:window-x="0"
     inkscape:window-y="24" />
  <metadata
     id="metadata3128">
    <rdf:RDF>
      <cc:Work
         rdf:about="">
        <dc:format>image/svg+xml</dc:format>
        <dc:type
           rdf:resource="http://purl.org/dc/dcmitype/StillImage" />
      </cc:Work>
    </rdf:RDF>
  </metadata>
  <g
     id="layer1"
     inkscape:label="Layer 1"
     inkscape:groupmode="layer">
    <g
       style="display:inline"
       id="g2877"
       transform="matrix(0.9561265,0,0,0.9561265,1.052964,2.1059284)">
      <rect
         style="opacity:0.40206185;fill:url(#linearGradient4000);fill-opacity:1;fill-rule:nonzero;stroke:none;stroke-width:1;stroke-linecap:round;stroke-linejoin:miter;marker:none;marker-start:none;marker-mid:none;marker-end:none;stroke-miterlimit:4;stroke-dasharray:none;stroke-dashoffset:0;stroke-opacity:1;visibility:visible;display:inline;overflow:visible"
         id="rect2879"
         width="34"
         height="3.7338707"
         x="7"
         y="44.266129" />
      <path
         sodipodi:nodetypes="cccc"
         id="path2881"
         d="M 7,44.266291 C 7,44.266291 7,47.999956 7,47.999956 C 5.7590552,48.006985 4,47.163431 4,46.132883 C 4,45.102336 5.3848007,44.266292 7,44.266291 z"
         style="opacity:0.40206185;fill:url(#radialGradient4002);fill-opacity:1;fill-rule:nonzero;stroke:none;stroke-width:1;stroke-linecap:round;stroke-linejoin:miter;marker:none;marker-start:none;marker-mid:none;marker-end:none;stroke-miterlimit:4;stroke-dasharray:none;stroke-dashoffset:0;stroke-opacity:1;visibility:visible;display:inline;overflow:visible" />
      <path
         sodipodi:nodetypes="cccc"
         id="path2883"
         d="M 41,44.266291 C 41,44.266291 41,47.999956 41,47.999956 C 42.240944,48.006985 44,47.163431 44,46.132883 C 44,45.102336 42.615199,44.266292 41,44.266291 z"
         style="opacity:0.40206185;fill:url(#radialGradient4004);fill-opacity:1;fill-rule:nonzero;stroke:none;stroke-width:1;stroke-linecap:round;stroke-linejoin:miter;marker:none;marker-start:none;marker-mid:none;marker-end:none;stroke-miterlimit:4;stroke-dasharray:none;stroke-dashoffset:0;stroke-opacity:1;visibility:visible;display:inline;overflow:visible" />
    </g>
    <g
       style="display:inline"
       id="g2805"
       transform="translate(2.999999,0)">
      <path
         sodipodi:nodetypes="cccccc"
         id="rect2594"
         d="M 3.4999609,1.4999584 C 11.520251,1.4999584 19.540551,1.4999584 27.560841,1.4999584 C 28.967781,1.9853384 36.526301,7.5150984 38.500041,11.343918 C 38.500041,23.062618 38.500041,34.781328 38.500041,46.500038 C 26.833351,46.500038 15.166651,46.500038 3.4999609,46.500038 C 3.4999609,31.500008 3.4999609,16.499988 3.4999609,1.4999584 z"
         style="fill:url(#linearGradient2810);fill-opacity:1;stroke:url(#linearGradient2812);stroke-width:0.9999218;stroke-linecap:butt;stroke-linejoin:round;stroke-miterlimit:4;stroke-dasharray:none;stroke-dashoffset:0;stroke-opacity:1" />
      <path
         sodipodi:nodetypes="cccc"
         id="path8596"
         d="M 26.767541,1.8146184 C 27.405041,5.9396784 27.377001,10.849088 27.377001,10.849088 C 27.377001,10.849088 32.246731,10.737588 38.262251,11.443018 C 33.365371,6.6552184 29.933801,4.6588384 26.767541,1.8146184 z"
         style="fill:#000000;fill-opacity:0.32663317;fill-rule:evenodd;stroke:#000000;stroke-width:0.5;stroke-linecap:butt;stroke-linejoin:round;stroke-miterlimit:4;stroke-dasharray:none;stroke-opacity:0.16582917;display:inline" />
      <path
         sodipodi:nodetypes="cccc"
         id="path12038"
         d="M 26.657921,1.5079284 C 28.070141,5.6304284 27.953011,9.7686284 27.953011,9.7686284 C 27.953011,9.7686284 35.786011,10.315938 38.128151,11.362558 C 38.128151,9.6514184 28.830651,1.5371384 26.657921,1.5079284 z"
         style="fill:url(#linearGradient2814);fill-opacity:1;fill-rule:evenodd;stroke:none;stroke-width:1px;stroke-linecap:butt;stroke-linejoin:miter;stroke-opacity:1;display:inline" />
    </g>
    <g
       style="display:inline"
       id="g5278"
       transform="translate(40.86706,-25.532011)">
      <path
         style="fill:url(#linearGradient5282);fill-opacity:1;fill-rule:evenodd;stroke:#42770c;stroke-width:1;stroke-linecap:butt;stroke-linejoin:round;stroke-miterlimit:4;stroke-dasharray:none;stroke-opacity:1"
         d="M -6.3335818,60.032011 L -6.3335818,55.030564 L 0.63294024,55.030564 L 0.63294024,60.032011 L 5.6343882,60.032011 L 5.6343882,67.032011 L 0.63294024,67.032011 L 0.63294024,72.032011 L -6.3396498,72.032011 L -6.3673378,67.032011 L -11.36706,67.032011 L -11.36706,60.032011 L -6.3335818,60.032011 z"
         id="path2262"
         sodipodi:nodetypes="ccccccccccccc" />
      <path
         style="fill:none;fill-opacity:1;fill-rule:evenodd;stroke:url(#linearGradient5284);stroke-width:1;stroke-linecap:butt;stroke-linejoin:miter;stroke-miterlimit:4;stroke-dasharray:none;stroke-opacity:1"
         d="M -5.3670598,61.032011 L -5.3670598,56.032011 L -0.36561976,56.032011 L -0.36561976,61.032011 L 4.6329402,61.032011 L 4.6329402,65.957933 L -0.36561976,65.942313 L -0.36561976,71.032011 L -5.3670598,71.032011 L -5.3670598,66.032004 L -10.36706,66.032004 L -10.36706,61.032011 L -5.3670598,61.032011 z"
         id="path2272"
         sodipodi:nodetypes="ccccccccccccc" />
    </g>
  </g>
</svg>
